X:1
T:Title
%%score { ( 1 3 ) | 2 }
L:1/8
M:4/4
K:Ab
V:1 treble nm="Grand Piano"
V:3 treble 
V:2 bass 
V:1
 z4 z2[Q:1/4=100] [CE]>[CA] | [Ec]>[=D_c] [E=c]>[Fd] [Ec]2 [EB]>[EA] | %2
 [FA]>[FB] [FA]>[DF] [CE]2 [CE]>[CE] | [CA]>[DG] [EA]>B c>c d>c | B6[K:bass] z2[K:treble] | %5
 [Ec]>[=D_c] [E=c]>[Fd] [Ec]2 [EB]>[EA] | [FA]>[FB] [FA]>F E2 c>c | %7
 B>B B>c [=DAB]>[DAB] [Ac]>[A=d] |[M:3/4] [Ge]6 |[M:1/4] [Ge]>[G=d] | %10
[M:4/4] d2- [Ed-]>[Fd-] [Gd]2 [_Gc]>[=Gd] | c->[Ec-] [Ac-]>[Fc-] [Ec]2 c>B | %12
 A>B [Ec]>[Ec] e>c B>A | B6 z2 | d6 z2 |[M:9/8] e6- e z z |[M:4/4] c>c c>A B>d c>B | %17
[M:3/4] [CA]6 |] %18
V:2
 z4 z2 [A,,A,]>[A,,A,] | [A,,A,]>[A,,A,] [A,,A,]>[A,,A,] [A,,A,]2 [B,,G,]>[C,A,] | %2
 [D,D]>[D,D] [D,D]>[D,A,] [A,,A,]2 [A,,A,]>[A,,A,] | %3
 [B,,E,]>[B,,E,] [C,A,]>[E,G,E] [A,E]>[A,E] [G,B,E]>[A,E] | [E,G,E]6 [C,A,]>[B,,G,] | %5
 [A,,A,]>[A,,A,] [A,,A,]>[A,,A,] [A,,A,]2 [B,,G,]>[C,A,] | %6
 [D,D]>[D,D] [D,D]>[F,A,D][K:treble] [A,C]2 [A,EA]>[A,EA] | %7
 [B,=DA]>[B,DA] [B,DA]>[B,DA][K:bass] B,,>B,, [B,,B,]>[B,,B,] |[M:3/4] [E,B,]6 | %9
[M:1/4] [E,B,]>[E,B,] |[M:4/4] [E,B,]2 [E,B,]>[E,B,] [E,B,]2 [E,=A,]>[E,B,] | %11
 [A,,A,]>A, A,>A, A,2 [A,E]>[E,G,D] | %12
 [F,A,C]>[E,G,D] [A,,A,]>[A,,A,] [A,CE]>.[G,A,E] [G,B,E]>[F,B,=D] | %13
 [E,G,E]>[E,G,] [B,,A,]>[B,,A,] [E,G,]2 [E,G,E]>[E,A,E] | %14
 [E,B,E]2 [E,B,]>[E,A,] [E,G,]2 [E,G,E]>[K:treble][G,DE] | %15
[M:9/8] [A,CE]>[A,C][B,D]- [B,D]/[B,D]/ [CE]2- [CE][K:bass][D,A,]>[D,A,] | %16
[M:4/4] [E,A,E]>[E,A,E] [E,A,E]>[E,C] [E,G,D]>[E,B,F] [E,A,E]>[E,G,D] |[M:3/4] [A,,A,]6 |] %18
V:3
 x8 | x8 | x8 | x8 | z4 z z/[K:bass] D,/ E>[K:treble]E | x8 | x8 | x8 |[M:3/4] x6 |[M:1/4] x2 | %10
[M:4/4] G2 z2 z4 | A2 z2 z4 | x8 | z z/ E/ =D>D E2 B>c | z z/ B/ G>F E2 c>B | %15
[M:9/8] z z/ E/G- G/G/ A2- A[Fd]>[Fd] |[M:4/4] x8 |[M:3/4] x6 |] %18

